X:761
T:Nighean Donn A Chuitein Riomhaich 
C:Joe Buchanan's Scottish Tome - Page 527.1
I:527 1
Z:Carl Allison
R:Slow Air
L:1/4
M:3/4
K:C
G, | C3 | C2 E | G2 A | c3 | A2 G | G2 E | D2 E | A2 G |
C3 | C2 E | G2 A | c2 G | A2 E | D2 D | C3 |
c2 c | c2 e | d2 c | c3 | E3 F | G2 G | =B2 A | A2 G |
G2 e | e2 c | d2 c | c2 G | A2 E | G2 E | D2 D | C3 |]

